X:1
T: The Lass o' Livingston
C:
R:Reel
Q: 232
K:F
M:4/4
L:1/8
C2|F3G A3f|cA cd cA GF|A2 G2 G2 FG|A2 G2 G2 FD|
CD FG A2 fd|cA GF GA Bc|d2 D2 D2 ((3CDE) |F2 D2 D2 C2|
F3G A3f|cA cd cA GF|A2 G2 G2 FG|A2 G2 G2 FD|
CD FG A2 fd|cA GF GA Bc|d2 D2 D2 ((3CDE) |F2 D2 D2 ((3cde) |
f3g fg ag|fc df cA GF|A2 G2 G2 FG|A2 G2 G2 fg|
af ga fc df|cA GF GA Bc|d2 D2 D2 ((3CDE) |F2 D2 D2 ((3cde) |
f3g fg ag|fc df cA GF|A2 G2 G2 FG|A2 G2 G2 fg|
af ga fc df|cA GF GA Bc|d2 D2 D2 ((3CDE) |F2 D2 D2||
